X: 2193
T: Austen's
R: reel
M: 4/4
K: Amajor
EFAB ~c3A|EFAc dAcA|EFAB ~c3B|Acfc ecBA|
EFAB ~c3A|EFAc ~d3A|1 cdeg agaf|ecBd cAcA:|2 cdeg afec|ecAd cAdf||
ec (3ccc ecac|bcac edBd|ec (3ccc ecac|bcac B2cd|
ec (3ccc ecac|bcac ecBA|EFAB ~B2af|ecBd cAga|
ec (3ccc ecac|bcac ecBA|[c3e3][ce] c/c/ceg|afec BAG2|
ec (3ccc ecac|bcac ecBA|EFAB ~B2af|ecBd cAAF||

